static/img/kroki/984545d9a36c413e1cd4b11b163424df.svg

<?xml version="1.0" encoding="us-ascii" standalone="no"?><svg xmlns="http://www.w3.org/2000/svg" xmlns:xlink="http://www.w3.org/1999/xlink" contentStyleType="text/css" height="374px" preserveAspectRatio="none" style="width:513px;height:374px;" version="1.1" viewBox="0 0 513 374" width="513px" zoomAndPan="magnify"><defs/><g><!--class azure_sql_server_managed_instance_ad_administrator--><g id="elem_azure_sql_server_managed_instance_ad_administrator"><rect codeLine="23" fill="#3D176E" height="39.7891" id="azure_sql_server_managed_instance_ad_administrator" rx="2.5" ry="2.5" style="stroke:#000D19;stroke-width:0.5;" width="499" x="7" y="328.58"/><ellipse cx="22" cy="348.4745" fill="#ADD1B2" rx="11" ry="11" style="stroke:#181818;stroke-width:1.0;"/><path d="M24.9688,354.1152 Q24.3906,354.412 23.75,354.5527 Q23.1094,354.7089 22.4063,354.7089 Q19.9063,354.7089 18.5781,353.0683 Q17.2656,351.412 17.2656,348.287 Q17.2656,345.162 18.5781,343.5058 Q19.9063,341.8495 22.4063,341.8495 Q23.1094,341.8495 23.75,342.0058 Q24.4063,342.162 24.9688,342.4589 L24.9688,345.1777 Q24.3438,344.5995 23.75,344.3339 Q23.1563,344.0527 22.5313,344.0527 Q21.1875,344.0527 20.5,345.1308 Q19.8125,346.1933 19.8125,348.287 Q19.8125,350.3808 20.5,351.4589 Q21.1875,352.5214 22.5313,352.5214 Q23.1563,352.5214 23.75,352.2558 Q24.3438,351.9745 24.9688,351.3964 L24.9688,354.1152 Z " fill="#000000"/><text fill="#D9B8FF" font-family="Helvetica" font-size="17" lengthAdjust="spacing" textLength="457" x="41" y="354.3598">azure_sql_server_managed_instance_ad_administrator</text></g><!--class microsoft_resource--><g id="elem_microsoft_resource"><rect codeLine="26" fill="#3D176E" height="39.7891" id="microsoft_resource" rx="2.5" ry="2.5" style="stroke:#000D19;stroke-width:0.5;" width="200" x="156.5" y="167.79"/><ellipse cx="171.5" cy="187.6845" fill="#ADD1B2" rx="11" ry="11" style="stroke:#181818;stroke-width:1.0;"/><path d="M174.4688,193.3252 Q173.8906,193.622 173.25,193.7627 Q172.6094,193.9189 171.9063,193.9189 Q169.4063,193.9189 168.0781,192.2783 Q166.7656,190.622 166.7656,187.497 Q166.7656,184.372 168.0781,182.7158 Q169.4063,181.0595 171.9063,181.0595 Q172.6094,181.0595 173.25,181.2158 Q173.9063,181.372 174.4688,181.6689 L174.4688,184.3877 Q173.8438,183.8095 173.25,183.5439 Q172.6563,183.2627 172.0313,183.2627 Q170.6875,183.2627 170,184.3408 Q169.3125,185.4033 169.3125,187.497 Q169.3125,189.5908 170,190.6689 Q170.6875,191.7314 172.0313,191.7314 Q172.6563,191.7314 173.25,191.4658 Q173.8438,191.1845 174.4688,190.6064 L174.4688,193.3252 Z " fill="#000000"/><text fill="#D9B8FF" font-family="Helvetica" font-size="17" lengthAdjust="spacing" textLength="158" x="190.5" y="193.5698">microsoft_resource</text></g><!--class resource--><g id="elem_resource"><rect codeLine="29" fill="#3D176E" height="39.7891" id="resource" rx="2.5" ry="2.5" style="stroke:#000D19;stroke-width:0.5;" width="113" x="200" y="7"/><ellipse cx="215" cy="26.8945" fill="#ADD1B2" rx="11" ry="11" style="stroke:#181818;stroke-width:1.0;"/><path d="M217.9688,32.5352 Q217.3906,32.832 216.75,32.9727 Q216.1094,33.1289 215.4063,33.1289 Q212.9063,33.1289 211.5781,31.4883 Q210.2656,29.832 210.2656,26.707 Q210.2656,23.582 211.5781,21.9258 Q212.9063,20.2695 215.4063,20.2695 Q216.1094,20.2695 216.75,20.4258 Q217.4063,20.582 217.9688,20.8789 L217.9688,23.5977 Q217.3438,23.0195 216.75,22.7539 Q216.1563,22.4727 215.5313,22.4727 Q214.1875,22.4727 213.5,23.5508 Q212.8125,24.6133 212.8125,26.707 Q212.8125,28.8008 213.5,29.8789 Q214.1875,30.9414 215.5313,30.9414 Q216.1563,30.9414 216.75,30.6758 Q217.3438,30.3945 217.9688,29.8164 L217.9688,32.5352 Z " fill="#000000"/><text fill="#D9B8FF" font-family="Helvetica" font-size="17" lengthAdjust="spacing" textLength="71" x="234" y="32.7798">resource</text></g><!--reverse link microsoft_resource to azure_sql_server_managed_instance_ad_administrator--><g id="link_microsoft_resource_azure_sql_server_managed_instance_ad_administrator"><path codeLine="32" d="M256.5,225.84 C256.5,256.36 256.5,297.69 256.5,328.25 " fill="none" id="microsoft_resource-backto-azure_sql_server_managed_instance_ad_administrator" style="stroke:#FFAF37;stroke-width:2.0;"/><polygon fill="none" points="256.5,207.84,250.5,225.84,262.5,225.84,256.5,207.84" style="stroke:#FFAF37;stroke-width:2.0;"/></g><!--reverse link resource to microsoft_resource--><g id="link_resource_microsoft_resource"><path codeLine="33" d="M256.5,65.05 C256.5,95.57 256.5,136.9 256.5,167.46 " fill="none" id="resource-backto-microsoft_resource" style="stroke:#FFAF37;stroke-width:2.0;"/><polygon fill="none" points="256.5,47.05,250.5,65.05,262.5,65.05,256.5,47.05" style="stroke:#FFAF37;stroke-width:2.0;"/></g><!--SRC=[dP9FQm913CNl-oa6F0jQQLNenIwKzYAbzhx4dOmExipO9Ajes-_UjTeoxle72dFA-ytBIyZSQbJebh9H3jqKYHDUMBy40gT6H66TXYAGQXa3fjUlYu_1orLW30xL4nOh59j3dNYRstpXaLdTHD83v8iPXTBhlRqGUAuaz19HQG7C8n6oqr8m2gE7qu4nTR9kskhfRlyE6rWWZNH0EfsExWxhoDLM5-V-8oPsYweRBsqS11in6or-g8ifTqGKiZ7ehtusumjeRVrCtKQrrtqcyaX7zSaST5ZlQ0C5nsrOa338PebfOoeS3hJfduIVpy59lbkTWcr9cF5xaJ7I2Ybpu666EhEU1NoE6UZgEUijLvSZbSD7admTVZkRK-1W92FaK5AEiNfSEy7UVxRRxNz4I6eEJUla6m00]--></g></svg>

<svg xmlns="http://www.w3.org/2000/svg" width="513" height="374" viewBox="0 0 513 374"><rect width="499" height="39.789" x="7" y="328.58" fill="#3D176E" rx="2.5" ry="2.5" style="stroke:#000d19;stroke-width:.5"/><circle cx="22" cy="348.474" r="11" fill="#ADD1B2" style="stroke:#181818;stroke-width:1"/><path d="M24.969 354.115q-.578.297-1.219.438-.64.156-1.344.156-2.5 0-3.828-1.64-1.312-1.657-1.312-4.782t1.312-4.781q1.328-1.656 3.828-1.656.703 0 1.344.156.656.156 1.219.453v2.719q-.625-.579-1.219-.844-.594-.281-1.219-.281-1.343 0-2.031 1.078-.687 1.062-.687 3.156t.687 3.172q.688 1.062 2.031 1.062.625 0 1.219-.265.594-.281 1.219-.86z"/><text x="41" y="354.36" fill="#D9B8FF" font-family="Helvetica" font-size="17" textLength="457">azure_sql_server_managed_instance_ad_administrator</text><rect width="200" height="39.789" x="156.5" y="167.79" fill="#3D176E" rx="2.5" ry="2.5" style="stroke:#000d19;stroke-width:.5"/><circle cx="171.5" cy="187.685" r="11" fill="#ADD1B2" style="stroke:#181818;stroke-width:1"/><path d="M174.469 193.325q-.578.297-1.219.438-.64.156-1.344.156-2.5 0-3.828-1.64-1.312-1.657-1.312-4.782t1.312-4.781q1.328-1.656 3.828-1.656.703 0 1.344.156.656.156 1.219.453v2.719q-.625-.578-1.219-.844-.594-.281-1.219-.281-1.344 0-2.031 1.078-.687 1.062-.687 3.156t.687 3.172q.688 1.062 2.031 1.062.625 0 1.219-.265.594-.281 1.219-.86z"/><text x="190.5" y="193.57" fill="#D9B8FF" font-family="Helvetica" font-size="17" textLength="158">microsoft_resource</text><rect width="113" height="39.789" x="200" y="7" fill="#3D176E" rx="2.5" ry="2.5" style="stroke:#000d19;stroke-width:.5"/><circle cx="215" cy="26.895" r="11" fill="#ADD1B2" style="stroke:#181818;stroke-width:1"/><path d="M217.969 32.535q-.578.297-1.219.438-.64.156-1.344.156-2.5 0-3.828-1.64-1.312-1.657-1.312-4.782t1.312-4.781q1.328-1.656 3.828-1.656.703 0 1.344.156.656.156 1.219.453v2.719q-.625-.578-1.219-.844-.594-.281-1.219-.281-1.344 0-2.031 1.078-.687 1.062-.687 3.156t.687 3.172q.688 1.062 2.031 1.062.625 0 1.219-.265.594-.281 1.219-.86z"/><text x="234" y="32.78" fill="#D9B8FF" font-family="Helvetica" font-size="17" textLength="71">resource</text><path fill="none" d="M256.5 225.84v102.41m0-120.41-6 18h12zm0-142.79v102.41m0-120.41-6 18h12z" style="stroke:#ffaf37;stroke-width:2"/></svg>
